assets/icons/24px/outline/triangle-equilateral-24px.svg

<svg width="24" height="24" viewBox="0 0 24 24" fill="none" xmlns="http://www.w3.org/2000/svg">
<path d="M19.8371 17.0244L20.7101 16.5365L19.8371 17.0244ZM10.2541 6.12421L9.38117 5.63639L10.2541 6.12421ZM12 4.04993V5.04993V4.04993ZM5.0358 17.5122L11.1271 6.61204L9.38117 5.63639L3.28992 16.5365L5.0358 17.5122ZM12.8729 6.61204L18.9642 17.5122L20.7101 16.5365L14.6188 5.6364L12.8729 6.61204ZM18.0913 19H5.90875V21H18.0913V19ZM3.28992 16.5365C2.93609 17.1697 2.61235 17.7435 2.43085 18.2226C2.24562 18.7115 2.10272 19.3702 2.47937 20.0121L4.20437 19C4.29121 19.148 4.18854 19.2284 4.30112 18.9312C4.41743 18.6242 4.64909 18.2042 5.0358 17.5122L3.28992 16.5365ZM5.90875 19C5.11601 19 4.63635 18.9973 4.31163 18.9491C3.9973 18.9024 4.11754 18.852 4.20437 19L2.47937 20.0121C2.85601 20.654 3.50067 20.8506 4.01782 20.9274C4.52456 21.0027 5.18344 21 5.90875 21V19ZM18.9642 17.5122C19.3509 18.2042 19.5826 18.6242 19.6989 18.9312C19.8115 19.2284 19.7088 19.148 19.7956 19L21.5206 20.0121C21.8973 19.3702 21.7544 18.7115 21.5692 18.2226C21.3876 17.7435 21.0639 17.1697 20.7101 16.5365L18.9642 17.5122ZM18.0913 21C18.8166 21 19.4754 21.0027 19.9822 20.9274C20.4993 20.8506 21.144 20.654 21.5206 20.0121L19.7956 19C19.8825 18.852 20.0027 18.9024 19.6884 18.9491C19.3636 18.9973 18.884 19 18.0913 19V21ZM11.1271 6.61204C11.53 5.89103 11.7784 5.45201 11.9888 5.17908C12.1956 4.9108 12.1804 5.04993 12 5.04993V3.04993C11.2328 3.04993 10.7311 3.53477 10.4049 3.95793C10.0822 4.37643 9.75103 4.97454 9.38117 5.63639L11.1271 6.61204ZM14.6188 5.6364C14.249 4.97454 13.9178 4.37643 13.5951 3.95793C13.2689 3.53477 12.7672 3.04993 12 3.04993V5.04993C11.8196 5.04993 11.8044 4.9108 12.0112 5.17908C12.2216 5.45201 12.47 5.89103 12.8729 6.61204L14.6188 5.6364Z" fill="white"/>
</svg>

<svg width="24" height="24" fill="none" xmlns="http://www.w3.org/2000/svg"><path d="M19.837 17.024l.873-.488-.873.488zm-9.583-10.9l-.873-.488.873.488zM12 4.05v1-1zM5.036 17.512l6.091-10.9-1.746-.976-6.091 10.9 1.746.976zm7.837-10.9l6.091 10.9 1.746-.976-6.091-10.9-1.746.976zM18.09 19H5.91v2H18.09v-2zM3.29 16.537c-.354.633-.678 1.207-.86 1.686-.184.489-.327 1.147.05 1.79L4.203 19c.087.148-.015.228.097-.069.116-.307.348-.727.735-1.419l-1.746-.976zM5.909 19c-.793 0-1.273-.003-1.597-.05-.315-.048-.194-.098-.108.05L2.48 20.012c.377.642 1.022.839 1.539.915.507.076 1.165.073 1.89.073v-2zm13.055-1.488c.387.692.619 1.112.735 1.42.112.296.01.216.097.068l1.725 1.012c.376-.642.233-1.3.048-1.79-.181-.479-.505-1.052-.859-1.686l-1.746.976zM18.091 21c.726 0 1.384.003 1.891-.073.517-.076 1.162-.273 1.539-.915L19.796 19c.087-.148.207-.098-.108-.05-.324.047-.804.05-1.597.05v2zM11.127 6.612c.403-.721.651-1.16.862-1.433.207-.268.191-.13.011-.13v-2c-.767 0-1.269.486-1.595.909-.323.418-.654 1.017-1.024 1.678l1.746.976zm3.492-.976c-.37-.661-.701-1.26-1.024-1.678-.326-.423-.828-.908-1.595-.908v2c-.18 0-.196-.14.011.13.21.272.459.711.862 1.432l1.746-.976z" fill="#fff"/></svg>
